X:1
T:Vals i köket
C:Jonas Åkerlund
R:Vals
M:3/4
L:1/4
Q:168
K:D
d d d | c c c | B3 | B3 | c c c | B B B | A3 | A3 |
d d d | c c c | B3 | B3 | c c c | A B c | d d d | d3 ||
B B B | B3 | c c c | c3 | ^A A A | ^A3 | B B B | B3 |
B B B | B3 | c c c | c3 | ^A A A | ^A3 | B B B | A3 :|

